X: 24
T:Bownan's March. HS.24
M:C
Q:150
S:Henry Stables MS,Cumbria,late19thC
R:March
O:Walthwaite,nr.Ambleside.
A:England
Z:vmp.Chris Partington
K:D
A2|d3f edeg|f2d2d2de|f3g bagf|e2e2e2A2|!
dcdf edeg|fgaba2A2|B2g2fedc|d2d2d2::!
f2|a2a2a2fd|b2a2a2g2|f3g bagf|e2e2e2A2|!
dcdf edeg|fgab a2A2|B2gf gedc|d2d2d2:||
